!!!SOCIAL_FUNCTION:	songs of the heyo'ka
!!!PDT:	1918

Specific Region: Dakotas, Minnesota, Montana, Nebraska
!!!REG: Dakotas and Montana
!!!LING_GROUP: Siouan
!!!LANG: Tone
!!!OTL@ENG: A Wind
!!!ONM: No. 41
**kern
*Imale
*clefG2
*k[b-e-a-d-]
*M3/4
*>[A,B,B,C]
*>norep[A,B,C]
*>A
*MM104
16f
8.f
8a-
8a-
4f
=1||
*M2/4
8d-
8c
8c
8B-
=2||
*M5/8
4.B-
4B-
*>B
=3!|:
*M3/4
16f
8.d-
8e-
8e-
4d-
*clefF4
=4||
*M2/4
8B-
8A-
8A-
8A-
=5||
*M7/8
4.F
4F
8F
8F
=6||
*M5/8
4B-
8B-
8c
8d-
=7||
*M3/4
4B-
8B-
8c
8B-
8B-
=8||
*M2/4
4A-
8F
8F
=9||
*M5/8
8A-
8A-
4.F
=10||
*M3/4
2F
*>C
=:|!
4F
==
*-
!!!CNT: Native American -- Sioux
!!!MRD: 1911/07//-1914///
!!!OCL: Frances Densmore
!!!YOR1: Teton Sioux Music, Bulletin 61,
!!!YOR2: Bureau of American Ethnology, Smithsonian Institution
!!!PPR: Government Printing Office
!!!PPP: Washington, D.C.
!!!PDT: 1918///
!!!ENC: Craig Stuart Sapp
!!!END: 2002/03/25/
!!!EEV: 2002/03/31/
!!!AGN: Ceremonial Song/Song of the Heyoka
!!!MPN@@SIO: Ishn'la-wicha'
!!!MPN@ENG: Lone Man
!!!TXO: Teton Sioux
!!!MLC: Standing Rock Reservation, South Dakota, United States of America
!!!ARL: 45.9/-100.7#
!!!catalog: Catalogue No. 494
!!!PPG: 168
!!!EFL: 41/245
!!!VTS: 1903717972
